X:1
T:Bonus est Dominus
T:Giovanni Pierluigi da Palestrina
T:Source : Secunda anthologia vocalis (Oreste Ravanello) Editor : André Vierendeels (16/05/17). 
T:Notes : Original clefs : G2, G2, G2 Text from Lectio I Sabato Sancto ad Matutinum
T:Bonus est Dominus
T:©
T:©
C:Giovanni Pierluigi da Palestrina
Z:©
%%score [ 1 2 3 ]
L:1/8
Q:1/4=120
M:4/4
K:C
V:1 treble nm="Soprano" snm="S"
V:2 treble nm="Alto 1" snm="A 1"
V:3 treble nm="Alto 2" snm="A 2"
V:1
 z4 e4- | e2 e2 e4 | d6 cB | c6 A2 | B3 c d2 e2- | e2 d2 e4 | d4 c2 B2 | A4 e4 | d4 c2 B2- | %9
w: Bo-|* nus est|Do- * *|||* mi- nus|spe- ran- ti-|bus, spe-|ran- ti- bus|
 B2 c3 B G2 | A4 G4 | z2 c4 c2 | c4 d4 | e4 f4- | f2 ed e4- | e4 A4 | B8 | !fermata!A8 |] %18
w: _ in _ _|e- um,|a- ni-|mae quae-|ren- *||* ti|il-|lum.|
V:2
 z8 | z8 | z4 A4- | A2 A2 A4 | G6 FE | F2 F2 E4 | z2 A4 G2- | G2 F2 E4 | z2 A4 G2- | G2 F2 E2 E2 | %10
w: ||Bo-|* nus est|Do- * *|* mi- nus|spe- ran-|* ti- bus,|spe- ran-|* ti- bus in|
 D4 G4 | z2 A4 G2 | F3 G A2 B2 | c4 F2 DE | FGAB c2 BA | B2 c3 B A2- | A2 ^G^F G4 | !fermata!A8 |] %18
w: e- um,|a- ni-|mae _ _ quae-|ren- ti il- *||||lum.|
V:3
 A6 A2 | A4 G4- | G2 FE F4- | F4 F4 | E4 z4 | A4 G4- | G2 F2 E4 | z2 A4 G2- | G2 F2 E3 F | %9
w: Bo- nus|est Do-||* mi-|nus|spe- ran-|* ti- bus,|spe- ran-|* * * ti-|
 G2 A3 G G2- | G2 ^F2 G4 | z2 F4 E2 | A3 G F2 G2 | C4 DEFG | ABcB A2 ^G^F | ^G2 A3 =G F2 | E8 | %17
w: bus in _ e-|* * um,|a- ni-|mae _ _ _|quae- ren- * * *||ti il- * *||
 !fermata!A8 |] %18
w: lum.|

